usr/share/icons/biglinux-icons-material-dark/22/actions/layer-visible-off.svg

<svg xmlns="http://www.w3.org/2000/svg" viewBox="0 0 22 22">
<defs id="defs3051">
<style id="current-color-scheme" type="text/css">
.ColorScheme-Text{color:#dedede}
</style>
</defs>
<path d="M4 3 1 7h12l4-4zm14.293 0L3 18.293l.707.707L19 3.707zM4 9l-3 4h6l4-4zm11 0-4 4h7l3-4zm-6 6-4 4h13l3-4z" class="ColorScheme-Text" style="fill:currentColor;fill-opacity:1;stroke:none"/>
</svg>

<svg xmlns="http://www.w3.org/2000/svg" viewBox="0 0 22 22">
  <defs id="defs3051">
    <style type="text/css" id="current-color-scheme">
      .ColorScheme-Text {
        color:#dedede;
      }
      </style>
  </defs>
 <path 
     style="fill:currentColor;fill-opacity:1;stroke:none" 
     d="M 4 3 L 1 7 L 13 7 L 17 3 L 4 3 z M 18.292969 3 L 3 18.292969 L 3.7070312 19 L 19 3.7070312 L 18.292969 3 z M 4 9 L 1 13 L 7 13 L 11 9 L 4 9 z M 15 9 L 11 13 L 18 13 L 21 9 L 15 9 z M 9 15 L 5 19 L 18 19 L 21 15 L 9 15 z "
     class="ColorScheme-Text"
     />
</svg>
